X:110
T:Fanny Power
R:Waltz
M:6/4
L:1/4
K:G
|:D|"G"G2D "Em"GAB|"C"c2B"Am"A2G|"D"F2E DFD|"D7"F2GA>Bc|!
"G"BAG "Bm"B>cd|"C"e2A"Am"A2G|"D"F2E D>GF|"G"G3G2:|!
|:B|dB/2c/2d "Bm"dB/2c/2d|"G"G>AG "Em"GBG|"C"ec/2d/2e "Am"ec/2d/2e|"D7"A>BA AcA|!
"G"B>cd "C"efg|"D"f>ga "G"dec|"Em"B>AG "D"A/c3/2F|"G"G3G2:|

